files/images/code-solid.svg

<svg aria-hidden="true" focusable="false" data-prefix="fas" data-icon="code" class="svg-inline--fa fa-code fa-w-20" role="img" xmlns="http://www.w3.org/2000/svg" viewBox="0 0 640 512"><path fill="currentColor" d="M278.9 511.5l-61-17.7c-6.4-1.8-10-8.5-8.2-14.9L346.2 8.7c1.8-6.4 8.5-10 14.9-8.2l61 17.7c6.4 1.8 10 8.5 8.2 14.9L293.8 503.3c-1.9 6.4-8.5 10.1-14.9 8.2zm-114-112.2l43.5-46.4c4.6-4.9 4.3-12.7-.8-17.2L117 256l90.6-79.7c5.1-4.5 5.5-12.3.8-17.2l-43.5-46.4c-4.5-4.8-12.1-5.1-17-.5L3.8 247.2c-5.1 4.7-5.1 12.8 0 17.5l144.1 135.1c4.9 4.6 12.5 4.4 17-.5zm327.2.6l144.1-135.1c5.1-4.7 5.1-12.8 0-17.5L492.1 112.1c-4.8-4.5-12.4-4.3-17 .5L431.6 159c-4.6 4.9-4.3 12.7.8 17.2L523 256l-90.6 79.7c-5.1 4.5-5.5 12.3-.8 17.2l43.5 46.4c4.5 4.9 12.1 5.1 17 .6z"></path></svg>

<svg width="640" height="512" viewBox="0 0 640 512" fill="none" xmlns="http://www.w3.org/2000/svg">
<g clip-path="url(#clip0_0_1)">
<path d="M278.9 511.5L217.9 493.8C211.5 492 207.9 485.3 209.7 478.9L346.2 8.7C348 2.3 354.7 -1.3 361.1 0.499996L422.1 18.2C428.5 20 432.1 26.7 430.3 33.1L293.8 503.3C291.9 509.7 285.3 513.4 278.9 511.5V511.5ZM164.9 399.3L208.4 352.9C213 348 212.7 340.2 207.6 335.7L117 256L207.6 176.3C212.7 171.8 213.1 164 208.4 159.1L164.9 112.7C160.4 107.9 152.8 107.6 147.9 112.2L3.80001 247.2C-1.29999 251.9 -1.29999 260 3.80001 264.7L147.9 399.8C152.8 404.4 160.4 404.2 164.9 399.3V399.3ZM492.1 399.9L636.2 264.8C641.3 260.1 641.3 252 636.2 247.3L492.1 112.1C487.3 107.6 479.7 107.8 475.1 112.6L431.6 159C427 163.9 427.3 171.7 432.4 176.2L523 256L432.4 335.7C427.3 340.2 426.9 348 431.6 352.9L475.1 399.3C479.6 404.2 487.2 404.4 492.1 399.9V399.9Z" fill="white"/>
</g>
<defs>
<clipPath id="clip0_0_1">
<rect width="640" height="512" fill="white"/>
</clipPath>
</defs>
</svg>
